X:476
T:a Favourite Duet by Mr Holmes
M:4/4
L:1/8
K:G
|: G2 GA BABc | d2 g2 d4 | e2 g2 d2 g2 | c2 B2 B2 A2 |
G2 GA BABc | d2 g2 d2 cB | cBAG D2 F2 | G8 :|
g2 gd B2 d2 | g2 gd B2 d2 | e2 ed cBAG | A2 D2 D4 |
g2 gd B2 d2 | g2 gd B2 d2 | e2 ed cBAG | A4 D4 |
G2 GA BABc | d2 g2 d4 | e2 g2 d2 g2 | c2 B2 B2 A2 |
G2 GA BABc | d2 g2 d2 cB | cBAG D2 F2 | G8 ||
